X:1
T:Glendy Burke
M:2/4
L:1/8
K:G
 D| GB A c/2c/2| B/2B/2 dG G/2A/2| B/2B/2 cd e| A3 D| GB A c/2c/2|\
 B/2B/2 dG G/2A/2| BB A A/2A/2| G3 D| GB A c/2c/2| Bd G3/2 A/2| B3/2 c/2 de|\
 A3 D| GB Ac| B/2B/2 d/2B/2 G G/2A/2| B3/2 c/2 AA| G3 z| d3/2 d/2 e3/2 d/2|\
 B d2 D| G3/2 G/2 AA| B3 D| GB Ac| B/2B/2 d/2B/2 G G/2A/2| B3/2 c/2 AA|\
 G3||

